Origami/32x32/apps/gifup.svg

<svg width="32" height="32" version="1.1" viewBox="0 0 32 32" xmlns="http://www.w3.org/2000/svg">
 <g transform="translate(0,-1020.3622)">
  <path d="m3.810643 1023.3632c-0.9930649-0.032-1.8106832 0.7234-1.8106429 2.0946v11.8724 11.8742c-4.003e-4 1.881 1.4750024 2.7088 2.6545985 1.7674l7.2301604-5.7634 7.231538-5.7633c1.178271-0.9403 1.178271-3.2883 0-4.2285l-7.231538-5.7634-7.2301604-5.7633c-0.2570157-0.205-0.5472415-0.3173-0.8439556-0.3267z" style="opacity:.2"/>
  <path d="m8.810643 1023.3632c-0.9930648-0.032-1.8106831 0.7234-1.8106429 2.0946v11.8724 11.8742c-4.002e-4 1.881 1.4750025 2.7088 2.6545985 1.7674l7.2301594-5.7634 7.231539-5.7633c1.178271-0.9403 1.178271-3.2883 0-4.2285l-7.231539-5.7634-7.2301594-5.7633c-0.2570158-0.205-0.5472415-0.3173-0.8439556-0.3267z" style="opacity:.2"/>
  <path d="m13.810643 1023.3632c-0.993065-0.032-1.810683 0.7234-1.810643 2.0946v11.8724 11.8742c-4e-4 1.881 1.475002 2.7088 2.654598 1.7674l7.23016-5.7634 7.231539-5.7633c1.178271-0.9403 1.178271-3.2883 0-4.2285l-7.231539-5.7634-7.23016-5.7633c-0.257015-0.205-0.547241-0.3173-0.843955-0.3267z" style="opacity:.2"/>
  <path d="m3.810643 1022.3632c-0.9930649-0.032-1.8106832 0.7234-1.8106429 2.0946v11.8724 11.8742c-4.003e-4 1.881 1.4750024 2.7088 2.6545985 1.7674l7.2301604-5.7634 7.231538-5.7633c1.178271-0.9403 1.178271-3.2883 0-4.2285l-7.231538-5.7634-7.2301604-5.7633c-0.2570157-0.205-0.5472415-0.3173-0.8439556-0.3267z" style="fill:#358be1"/>
  <path transform="translate(0,1020.3622)" d="m3.8105469 2.0019531c-0.9930649-0.032-1.8105872 0.72255-1.8105469 2.09375v1c-4.03e-5 -1.3712 0.817482-2.12575 1.8105469-2.09375 0.2967141 0.0094 0.5867343 0.1211719 0.84375 0.3261719l7.2304691 5.7636719 7.232422 5.7617191c0.468669 0.373974 0.742057 0.972977 0.83789 1.615234 0.145099-0.97244-0.128289-2.049008-0.83789-2.615234l-7.232422-5.7617191-7.2304691-5.7636719c-0.2570157-0.205-0.5470359-0.3167719-0.84375-0.3261719z" style="fill:#ffffff;opacity:.2"/>
  <path d="m8.810643 1022.3632c-0.9930648-0.032-1.8106831 0.7234-1.8106429 2.0946v11.8724 11.8742c-4.002e-4 1.881 1.4750025 2.7088 2.6545985 1.7674l7.2301594-5.7634 7.231539-5.7633c1.178271-0.9403 1.178271-3.2883 0-4.2285l-7.231539-5.7634-7.2301594-5.7633c-0.2570158-0.205-0.5472415-0.3173-0.8439556-0.3267z" style="fill:#cccccc"/>
  <path transform="translate(0,1020.3622)" d="m8.8105469 2.0019531c-0.9930648-0.032-1.8105871 0.72255-1.8105469 2.09375v1c-4.02e-5 -1.3712 0.8174821-2.12575 1.8105469-2.09375 0.2967141 0.0094 0.5867342 0.1211719 0.84375 0.3261719l7.2304691 5.7636719 7.232422 5.7617191c0.468669 0.373974 0.742057 0.972977 0.83789 1.615234 0.145099-0.97244-0.128289-2.049008-0.83789-2.615234l-7.232422-5.7617191-7.2304691-5.7636719c-0.2570158-0.205-0.5470359-0.3167719-0.84375-0.3261719z" style="fill:#ffffff;opacity:.2"/>
  <path d="m13.810643 1022.3632c-0.993065-0.032-1.810683 0.7234-1.810643 2.0946v11.8724 11.8742c-4e-4 1.881 1.475002 2.7088 2.654598 1.7674l7.23016-5.7634 7.231539-5.7633c1.178271-0.9403 1.178271-3.2883 0-4.2285l-7.231539-5.7634-7.23016-5.7633c-0.257015-0.205-0.547241-0.3173-0.843955-0.3267z" style="fill:#f47329"/>
  <path transform="translate(0,1020.3622)" d="m13.810547 2.0019531c-0.993065-0.032-1.810587 0.72255-1.810547 2.09375v1c-4e-5 -1.3712 0.817482-2.12575 1.810547-2.09375 0.296714 0.0094 0.586735 0.1211719 0.84375 0.3261719l7.230469 5.7636719 7.232422 5.7617191c0.468669 0.373974 0.742057 0.972977 0.83789 1.615234 0.145099-0.97244-0.128289-2.049008-0.83789-2.615234l-7.232422-5.7617191-7.230469-5.7636719c-0.257015-0.205-0.547036-0.3167719-0.84375-0.3261719z" style="fill:#ffffff;opacity:.2"/>
 </g>
</svg>

<svg xmlns="http://www.w3.org/2000/svg" width="32" height="32" version="1.1" viewBox="0 0 32 32">
 <g transform="translate(0,-1020.3622)">
  <path style="opacity:0.2" d="m 3.810643,1023.3632 c -0.9930649,-0.032 -1.8106832,0.7234 -1.8106429,2.0946 l 0,11.8724 0,11.8742 c -4.003e-4,1.881 1.4750024,2.7088 2.6545985,1.7674 l 7.2301604,-5.7634 7.231538,-5.7633 c 1.178271,-0.9403 1.178271,-3.2883 0,-4.2285 l -7.231538,-5.7634 -7.2301604,-5.7633 c -0.2570157,-0.205 -0.5472415,-0.3173 -0.8439556,-0.3267 z"/>
  <path style="opacity:0.2" d="m 8.810643,1023.3632 c -0.9930648,-0.032 -1.8106831,0.7234 -1.8106429,2.0946 l 0,11.8724 0,11.8742 c -4.002e-4,1.881 1.4750025,2.7088 2.6545985,1.7674 l 7.2301594,-5.7634 7.231539,-5.7633 c 1.178271,-0.9403 1.178271,-3.2883 0,-4.2285 l -7.231539,-5.7634 -7.2301594,-5.7633 c -0.2570158,-0.205 -0.5472415,-0.3173 -0.8439556,-0.3267 z"/>
  <path style="opacity:0.2" d="m 13.810643,1023.3632 c -0.993065,-0.032 -1.810683,0.7234 -1.810643,2.0946 l 0,11.8724 0,11.8742 c -4e-4,1.881 1.475002,2.7088 2.654598,1.7674 l 7.23016,-5.7634 7.231539,-5.7633 c 1.178271,-0.9403 1.178271,-3.2883 0,-4.2285 l -7.231539,-5.7634 -7.23016,-5.7633 c -0.257015,-0.205 -0.547241,-0.3173 -0.843955,-0.3267 z"/>
  <path style="fill:#358be1" d="m 3.810643,1022.3632 c -0.9930649,-0.032 -1.8106832,0.7234 -1.8106429,2.0946 l 0,11.8724 0,11.8742 c -4.003e-4,1.881 1.4750024,2.7088 2.6545985,1.7674 l 7.2301604,-5.7634 7.231538,-5.7633 c 1.178271,-0.9403 1.178271,-3.2883 0,-4.2285 l -7.231538,-5.7634 -7.2301604,-5.7633 c -0.2570157,-0.205 -0.5472415,-0.3173 -0.8439556,-0.3267 z"/>
  <path style="opacity:0.2;fill:#ffffff" d="M 3.8105469 2.0019531 C 2.817482 1.9699531 1.9999597 2.7245031 2 4.0957031 L 2 5.0957031 C 1.9999597 3.7245031 2.817482 2.9699531 3.8105469 3.0019531 C 4.107261 3.0113531 4.3972812 3.123125 4.6542969 3.328125 L 11.884766 9.0917969 L 19.117188 14.853516 C 19.585857 15.22749 19.859245 15.826493 19.955078 16.46875 C 20.100177 15.49631 19.826789 14.419742 19.117188 13.853516 L 11.884766 8.0917969 L 4.6542969 2.328125 C 4.3972812 2.123125 4.107261 2.0113531 3.8105469 2.0019531 z" transform="translate(0,1020.3622)"/>
  <path style="fill:#cccccc" d="m 8.810643,1022.3632 c -0.9930648,-0.032 -1.8106831,0.7234 -1.8106429,2.0946 l 0,11.8724 0,11.8742 c -4.002e-4,1.881 1.4750025,2.7088 2.6545985,1.7674 l 7.2301594,-5.7634 7.231539,-5.7633 c 1.178271,-0.9403 1.178271,-3.2883 0,-4.2285 l -7.231539,-5.7634 -7.2301594,-5.7633 c -0.2570158,-0.205 -0.5472415,-0.3173 -0.8439556,-0.3267 z"/>
  <path style="opacity:0.2;fill:#ffffff" d="M 8.8105469 2.0019531 C 7.8174821 1.9699531 6.9999598 2.7245031 7 4.0957031 L 7 5.0957031 C 6.9999598 3.7245031 7.8174821 2.9699531 8.8105469 3.0019531 C 9.107261 3.0113531 9.3972811 3.123125 9.6542969 3.328125 L 16.884766 9.0917969 L 24.117188 14.853516 C 24.585857 15.22749 24.859245 15.826493 24.955078 16.46875 C 25.100177 15.49631 24.826789 14.419742 24.117188 13.853516 L 16.884766 8.0917969 L 9.6542969 2.328125 C 9.3972811 2.123125 9.107261 2.0113531 8.8105469 2.0019531 z" transform="translate(0,1020.3622)"/>
  <path style="fill:#f47329" d="m 13.810643,1022.3632 c -0.993065,-0.032 -1.810683,0.7234 -1.810643,2.0946 l 0,11.8724 0,11.8742 c -4e-4,1.881 1.475002,2.7088 2.654598,1.7674 l 7.23016,-5.7634 7.231539,-5.7633 c 1.178271,-0.9403 1.178271,-3.2883 0,-4.2285 l -7.231539,-5.7634 -7.23016,-5.7633 c -0.257015,-0.205 -0.547241,-0.3173 -0.843955,-0.3267 z"/>
  <path style="opacity:0.2;fill:#ffffff" d="M 13.810547 2.0019531 C 12.817482 1.9699531 11.99996 2.7245031 12 4.0957031 L 12 5.0957031 C 11.99996 3.7245031 12.817482 2.9699531 13.810547 3.0019531 C 14.107261 3.0113531 14.397282 3.123125 14.654297 3.328125 L 21.884766 9.0917969 L 29.117188 14.853516 C 29.585857 15.22749 29.859245 15.826493 29.955078 16.46875 C 30.100177 15.49631 29.826789 14.419742 29.117188 13.853516 L 21.884766 8.0917969 L 14.654297 2.328125 C 14.397282 2.123125 14.107261 2.0113531 13.810547 2.0019531 z" transform="translate(0,1020.3622)"/>
 </g>
</svg>
